X:588
T:
S:Upptecknad efter försjungning av Greta Nilsdotter Sallmans i Burs.
R:schottis
O:Gotland, Burs
M:2/4
L:1/16
K:D
d2f2d2F2|G2B2 A4|A2g2e2c2|A2f2d2F2|A2f2d2F2|G2B2 A4|A2g2e2c2|d2dd
d4:|D2E2F2G2|ABAG F2d2|BcB^A B2g2|e2c2d2f2|D2E2 F2G2|ABAG F2d2|BcB^A B2g2|e2c2
d4:|

